X: 4957
T: Brelydian
R: polka
M: 2/4
K: Dmajor
D>F ED|FE DC|zd cA|BF AF|
D>F ED|FE DC|zd cA|1 G3F:|2 G3B||
|:c2 A>B|cd ed|cA Ac|BG GA/B/|
c2 A>B|cd ef|g2 fe|1 d2 cB:|2 d2 cA||
|:zd cA|BF AF|zd cA|BF G2-|
Gd cA|BF AF|E>d BA|BF E2:|

